assets/images/favicons/safari-pinned-tab.svg

<?xml version="1.0" encoding="UTF-8"?>
<svg width="16px" height="16px" viewBox="0 0 16 16" version="1.1" xmlns="http://www.w3.org/2000/svg" xmlns:xlink="http://www.w3.org/1999/xlink">
    <!-- Generator: Sketch 41.2 (35397) - http://www.bohemiancoding.com/sketch -->
    <title>16x16</title>
    <desc>Created with Sketch.</desc>
    <defs></defs>
    <g id="Symbols" stroke="none" stroke-width="1" fill="none" fill-rule="evenodd">
        <path d="M8.00850897,15.9995984 C8.00057801,16.0175787 7.42009725,15.431737 6.2670791,14.2421998 C5.09290514,13.0308367 3.86549975,11.6560247 2.5848093,10.1177857 C1.30412883,8.57957727 0.537321159,7.4223254 0.284379432,6.64610223 C-0.134976843,5.359189 -0.0905330782,4.0977192 0.417700741,2.86166219 C0.92593456,1.62560518 1.75210023,0.775036226 2.89621458,0.309913789 C4.04032893,-0.155208649 5.16269992,-0.0967878898 6.26336434,0.485195804 C6.99648395,0.872837717 7.5784704,1.41684359 8.00932664,2.11722247 C8.43917714,1.41685597 9.01979509,0.872856344 9.75118344,0.485214546 C10.8492914,-0.0967916284 11.9690554,-0.155214644 13.1105124,0.30992576 C14.2519693,0.775066163 15.0762161,1.62566797 15.5832694,2.86177273 C16.0903228,4.09787748 16.1346633,5.35939601 15.7162811,6.64635895 C15.5568974,7.13663055 15.1695315,7.80005455 14.5542202,8.63661123 C13.9389088,9.4731679 13.3067864,10.2682422 12.6578758,11.0216701 C12.0089721,11.7751702 11.2738844,12.5918245 10.4525928,13.4716943 C9.63130122,14.3515641 9.06393835,14.947435 8.75049741,15.2592347 C8.43705646,15.5710345 8.19030185,15.8174952 8.01023359,15.9986168 C8.0097723,16.0000358 8.00919743,16.000363 8.00850897,15.9995984 Z" id="16x16" fill="#000000"></path>
    </g>
</svg>

<svg width="16" height="16" viewBox="0 0 16 16" xmlns="http://www.w3.org/2000/svg"><title>16x16</title><path d="M8.009 16c-.008.018-.589-.568-1.742-1.758a73.604 73.604 0 0 1-3.682-4.124C1.305 8.58.537 7.422.285 6.646c-.42-1.287-.376-2.548.133-3.784C.926 1.626 1.752.775 2.896.31 4.04-.155 5.163-.097 6.263.485A4.46 4.46 0 0 1 8.01 2.117c.43-.7 1.01-1.244 1.742-1.632 1.098-.582 2.218-.64 3.36-.175 1.141.465 1.965 1.316 2.472 2.552.507 1.236.552 2.497.133 3.784-.16.49-.546 1.154-1.162 1.99a39.67 39.67 0 0 1-1.896 2.386 82.92 82.92 0 0 1-2.205 2.45 80.27 80.27 0 0 1-1.703 1.787 199.75 199.75 0 0 0-.741.74z" fill="#000" fill-rule="evenodd"/></svg>
